G21         ; Set units to mm
G90         ; Absolute positioning
M4 S0       ; Enable Laser/Spindle (0 power)


; Pass 0

; First Move
G0 X15.52 Y0.92 
; Generated by LaserWeb (lw.raster-to-gcode.js)
; Size       : 0 x 0 mm
; PPI        : x: 300 - y: 300
; PPM        : x: 0.0846666667 - y: 0.0846666667
; Tool diam. : 0.2 mm
; Feed rate  : 1000 mm/min
; Beam range : 0 to 1000
; Beam power : 0 to 100 %
; Options    : trimLine, joinPixel, burnWhite

G1 F1000

G1 X15.52 Y0.92 S0.0000
X15.72 S3.9216
X16.12 S0.0000
X16.22 S3.9216
X16.82 Y1.12 S0.0000
X16.72 S3.9216
X16.42 S0.0000
X16.32 S3.9216
X15.82 S0.0000
X15.72 S3.9216
Y1.32 S0.0000
X15.82 S3.9216
X16.32 S0.0000
X16.42 S2.6144
X17.12 S0.0000
X17.22 S3.9216
X17.72 Y1.52 S0.0000
X17.52 S3.9216
X16.42 S0.0000
X16.32 S10.4575
X15.82 S0.0000
X15.72 S3.9216
X16.12 Y1.72 S0.0000
X16.22 S66.6667
X16.42 S433.9869
X16.62 S358.1699
X16.82 S158.1699
X17.02 S37.9085
X17.22 S11.7647
X17.32 S3.9216
X17.92 S0.0000
X18.02 S3.9216
X18.62 Y1.92 S0.0000
X18.52 S3.9216
X17.72 S0.0000
X17.62 S3.9216
X17.42 S23.5294
X17.22 S62.7451
X17.02 S197.3856
X16.82 S535.9477
X16.62 S640.5229
X16.42 S688.8889
X16.22 S640.5229
X16.12 S99.3464
Y2.12 S0.0000
X16.22 S116.3399
X16.42 S739.8693
X16.62 S743.7908
X16.82 S739.8693
X17.02 S734.6405
X17.22 S683.6601
X17.42 S575.1634
X17.62 S351.6340
X17.72 S47.0588
X19.42 Y2.32 S0.0000
X19.32 S3.9216
X18.52 S0.0000
X18.42 S6.5359
X18.22 S48.3660
X18.02 S151.6340
X17.82 S363.3987
X17.62 S609.1503
X17.42 S692.8105
X17.22 S728.1046
X17.02 S739.8693
X16.22 S743.7908
X16.02 S133.3333
X15.92 S2.6144
X15.52 Y2.52 S0.0000
X15.62 S3.9216
X15.92 S0.0000
X16.02 S6.5359
X16.22 S169.9346
X17.62 S743.7908
X17.82 S739.8693
X18.02 S698.0392
X18.22 S658.8235
X18.42 S520.2614
X18.62 S145.0980
X18.82 S41.8301
X18.92 S10.4575
X19.92 S0.0000
X20.02 S3.9216
X20.42 Y2.72 S0.0000
X20.32 S3.9216
X19.32 S0.0000
X19.22 S3.9216
X19.02 S7.8431
X18.82 S183.0065
X18.62 S566.0131
X18.42 S695.4248
X18.22 S732.0261
X16.22 S743.7908
X16.02 S253.5948
X15.92 S15.6863
X15.32 Y2.92 S0.0000
X15.52 S3.9216
X15.92 S0.0000
X16.02 S22.2222
X16.22 S299.3464
X18.62 S743.7908
X18.82 S725.4902
X19.02 S647.0588
X19.22 S533.3333
X19.42 S197.3856
X19.62 S53.5948
X19.72 S16.9935
X20.72 S0.0000
X20.82 S3.9216
Y3.12 S0.0000
X20.72 S3.9216
X20.12 S0.0000
X20.02 S14.3791
X19.82 S53.5948
X19.62 S256.2092
X19.42 S543.7908
X19.22 S666.6667
X19.02 S728.1046
X18.82 S739.8693
X16.22 S743.7908
X16.02 S426.1438
X15.92 S40.5229
X15.62 S0.0000
X15.52 S3.9216
X15.92 Y3.32 S0.0000
X16.02 S56.2092
X16.22 S545.0980
X19.22 S743.7908
X19.42 S739.8693
X19.62 S733.3333
X19.82 S687.5817
X20.02 S568.6275
X20.22 S347.7124
X20.42 S37.9085
X20.52 S5.2288
X21.32 S0.0000
X21.42 S3.9216
X21.72 S0.0000
X21.82 S3.9216
Y3.52 S0.0000
X21.72 S3.9216
X21.12 S0.0000
X21.02 S3.9216
X20.82 S11.7647
X20.62 S57.5163
X20.42 S230.0654
X20.22 S538.5621
X20.02 S681.0458
X19.82 S728.1046
X19.62 S739.8693
X17.22 S743.7908
X17.02 S739.8693
X16.22 S743.7908
X16.02 S671.8954
X15.92 S70.5882
Y3.72 S0.0000
X16.02 S79.7386
X16.22 S691.5033
X16.82 S743.7908
X17.02 S739.8693
X17.22 S674.5098
X17.42 S737.2549
X20.02 S743.7908
X20.22 S739.8693
X20.42 S733.3333
X20.62 S691.5033
X20.82 S566.0131
X21.02 S139.8693
X21.22 S19.6078
X21.32 S3.9216
X21.92 S0.0000
X22.12 S3.9216
X22.52 Y3.92 S0.0000
X22.32 S3.9216
X21.92 S0.0000
X21.82 S3.9216
X21.62 S6.5359
X21.42 S30.0654
X21.22 S137.2549
X21.02 S520.2614
X20.82 S661.4379
X20.62 S726.7974
X20.42 S739.8693
X18.02 S743.7908
X17.82 S739.8693
X17.62 S717.6471
X17.42 S579.0850
X17.22 S286.2745
X17.02 S146.4052
X16.82 S696.7320
X16.22 S743.7908
X16.02 S698.0392
X15.82 S134.6405
X15.72 S6.5359
X15.32 Y4.12 S0.0000
X15.62 S3.9216
X15.82 S19.6078
X16.02 S230.0654
X16.22 S703.2680
X16.62 S743.7908
X16.82 S737.2549
X17.02 S643.1373
X17.22 S47.0588
X17.42 S36.6013
X17.62 S101.9608
X17.82 S287.5817
X18.02 S558.1699
X18.22 S709.8039
X18.42 S733.3333
X20.82 S743.7908
X21.02 S739.8693
X21.22 S718.9542
X21.42 S643.1373
X21.62 S465.3595
X21.82 S164.7059
X22.02 S31.3725
X22.12 S5.2288
X22.32 Y4.32 S0.0000
X22.22 S1.3072
X22.02 S60.1307
X21.82 S359.4771
X21.62 S654.9020
X21.42 S726.7974
X21.22 S739.8693
X18.42 S743.7908
X18.22 S577.7778
X18.02 S262.7451
X17.82 S65.3595
X17.62 S19.6078
X17.52 S3.9216
X17.12 S0.0000
X17.02 S33.9869
X16.82 S488.8889
X16.62 S716.3399
X16.22 S743.7908
X16.02 S708.4967
X15.82 S277.1242
X15.72 S24.8366
X15.42 S0.0000
X15.32 S3.9216
Y4.52 S0.0000
X15.42 S3.9216
X15.72 S0.0000
X15.82 S40.5229
X16.02 S430.0654
X16.22 S720.2614
X16.62 S743.7908
X16.82 S696.7320
X17.02 S358.1699
X17.12 S26.1438
X17.92 S0.0000
X18.02 S3.9216
X18.22 S31.3725
X18.42 S99.3464
X18.62 S281.0458
X18.82 S589.5425
X19.02 S707.1895
X19.22 S738.5621
X21.62 S743.7908
X21.82 S734.6405
X22.02 S695.4248
X22.22 S613.0719
X22.42 S352.9412
X22.62 S48.3660
X22.82 S10.4575
X22.92 S3.9216
X23.52 S0.0000
X23.62 S3.9216
X23.72 Y4.72 S0.0000
X23.52 S3.9216
X23.12 S0.0000
X23.02 S3.9216
X22.82 S31.3725
X22.62 S172.5490
X22.42 S549.0196
X22.22 S687.5817
X22.02 S739.8693
X19.42 S743.7908
X19.22 S717.6471
X19.02 S603.9216
X18.82 S286.2745
X18.62 S96.7320
X18.42 S30.0654
X18.32 S5.2288
X17.12 S0.0000
X17.02 S18.3007
X16.82 S258.8235
X16.62 S681.0458
X16.22 S743.7908
X16.02 S729.4118
X15.82 S564.7059
X15.72 S60.1307
X15.42 S0.0000
X15.32 S3.9216
X15.72 Y4.92 S0.0000
X15.82 S81.0458
X16.02 S713.7255
X16.22 S739.8693
X16.62 S743.7908
X16.82 S657.5163
X17.02 S103.2680
X17.12 S7.8431
X18.72 S0.0000
X18.82 S3.9216
X19.02 S30.0654
X19.22 S121.5686
X19.42 S398.6928
X19.62 S694.1176
X22.22 S743.7908
X22.42 S739.8693
X22.62 S732.0261
X22.82 S654.9020
X23.02 S414.3791
X23.22 S71.8954
X23.32 S2.6144
X24.12 S0.0000
X24.22 S3.9216
X24.52 Y5.12 S0.0000
X24.32 S3.9216
X23.92 S0.0000
X23.82 S3.9216
X23.62 S10.4575
X23.42 S49.6732
X23.22 S343.7908
X23.02 S615.6863
X22.82 S698.0392
X22.62 S739.8693
X20.22 S743.7908
X20.02 S733.3333
X19.82 S666.6667
X19.62 S460.1307
X19.42 S180.3922
X19.22 S61.4379
X19.02 S14.3791
X18.92 S2.6144
X17.12 S0.0000
X17.02 S2.6144
X16.82 S14.3791
X16.62 S611.7647
X16.42 S741.1765
X16.02 S743.7908
X15.82 S728.1046
X15.62 S101.9608
X15.52 S3.9216
Y5.32 S0.0000
X15.62 S10.4575
X15.82 S143.7908
X16.02 S726.7974
X16.42 S743.7908
X16.62 S733.3333
X16.72 S568.6275
X19.32 S0.0000
X19.42 S3.9216
X19.62 S13.0719
X19.82 S64.0523
X20.02 S273.2026
X20.22 S569.9346
X20.42 S725.4902
X20.62 S742.4837
X23.02 S743.7908
X23.22 S739.8693
X23.42 S691.5033
X23.62 S556.8627
X23.82 S155.5556
X23.92 S23.5294
X24.32 S0.0000
X24.42 S3.9216
X24.92 S0.0000
X25.02 S3.9216
X24.92 Y5.52 S0.0000
X24.72 S3.9216
X24.32 S0.0000
X24.22 S3.9216
X24.02 S32.6797
X23.82 S356.8627
X23.62 S650.9804
X23.42 S733.3333
X20.82 S743.7908
X20.62 S737.2549
X20.42 S637.9085
X20.22 S275.8170
X20.02 S75.8170
X19.82 S23.5294
X19.72 S3.9216
X16.72 S0.0000
X16.62 S465.3595
X16.42 S715.0327
X16.02 S743.7908
X15.82 S732.0261
X15.62 S269.2810
X15.52 S33.9869
X15.22 S0.0000
X15.12 S3.9216
Y5.72 S0.0000
X15.22 S3.9216
X15.52 S0.0000
X15.62 S61.4379
X15.82 S426.1438
X16.02 S734.6405
X16.42 S743.7908
X16.62 S691.5033
X16.72 S322.8758
X20.12 S0.0000
X20.22 S3.9216
X20.42 S39.2157
X20.62 S172.5490
X20.82 S450.9804
X21.02 S666.6667
X21.22 S732.0261
X23.62 S743.7908
X23.82 S739.8693
X24.02 S684.9673
X24.22 S535.9477
X24.42 S173.8562
X24.52 S43.1373
X25.12 S0.0000
X25.32 S3.9216
X25.42 Y5.92 S0.0000
X25.32 S3.9216
X24.72 S0.0000
X24.62 S28.7582
X24.42 S406.5359
X24.22 S650.9804
X24.02 S732.0261
X23.82 S739.8693
X21.42 S743.7908
X21.22 S741.1765
X21.02 S609.1503
X20.82 S274.5098
X20.62 S60.1307
X20.42 S11.7647
X20.32 S3.9216
X16.72 S0.0000
X16.62 S210.4575
X16.42 S671.8954
X16.02 S743.7908
X15.82 S739.8693
X15.62 S554.2484
X15.52 S86.2745
Y6.12 S0.0000
X15.62 S120.2614
X15.82 S698.0392
X16.42 S743.7908
X16.62 S654.9020
X16.72 S101.9608
X20.72 S0.0000
X20.82 S2.6144
X21.02 S28.7582
X21.22 S108.4967
X21.42 S358.1699
X21.62 S669.2810
X21.82 S732.0261
X24.22 S743.7908
X24.42 S739.8693
X24.62 S701.9608
X24.82 S552.9412
X25.02 S162.0915
X25.12 S23.5294
X25.52 Y6.32 S0.0000
X25.42 S11.7647
X25.22 S69.2810
X25.02 S402.6144
X24.82 S628.7582
X24.62 S725.4902
X24.42 S739.8693
X22.22 S743.7908
X22.02 S738.5621
X21.82 S711.1111
X21.62 S458.8235
X21.42 S171.2418
X21.22 S52.2876
X21.12 S7.8431
X16.72 S0.0000
X16.62 S56.2092
X16.42 S605.2288
X16.22 S739.8693
X15.82 S743.7908
X15.62 S720.2614
X15.42 S169.9346
X15.32 S3.9216
X14.72 Y6.52 S0.0000
X14.82 S3.9216
X15.32 S0.0000
X15.42 S9.1503
X15.62 S223.5294
X15.82 S720.2614
X16.22 S743.7908
X16.42 S728.1046
X16.62 S465.3595
X16.72 S39.2157
X21.32 S0.0000
X21.42 S3.9216
X21.62 S7.8431
X21.82 S58.8235
X22.02 S261.4379
X22.22 S644.4444
X24.82 S743.7908
X25.02 S739.8693
X25.22 S713.7255
X25.42 S554.2484
X25.52 S147.7124
X26.52 S0.0000
X26.62 S3.9216
X26.12 Y6.72 S0.0000
X26.02 S6.5359
X25.82 S60.1307
X25.62 S359.4771
X25.42 S627.4510
X25.22 S725.4902
X22.82 S743.7908
X22.62 S738.5621
X22.42 S709.8039
X22.22 S460.1307
X22.02 S166.0131
X21.82 S33.9869
X21.72 S6.5359
X16.72 S0.0000
X16.62 S30.0654
X16.42 S351.6340
X16.22 S713.7255
X15.82 S743.7908
X15.62 S724.1830
X15.42 S299.3464
X15.22 S22.2222
X14.92 S3.9216
X15.32 Y6.92 S0.0000
X15.42 S40.5229
X15.62 S474.5098
X15.82 S733.3333
X16.22 S743.7908
X16.42 S708.4967
X16.62 S299.3464
X16.72 S23.5294
X21.92 S0.0000
X22.02 S3.9216
X22.22 S15.6863
X22.42 S84.9673
X22.62 S283.6601
X22.82 S620.9150
X23.02 S728.1046
X25.42 S743.7908
X25.62 S734.6405
X25.82 S686.2745
X26.02 S509.8039
X26.22 S107.1895
X26.32 S6.5359
X27.42 Y7.12 S0.0000
X27.32 S3.9216
X26.52 S0.0000
X26.42 S16.9935
X26.22 S158.1699
X26.02 S550.3268
X25.82 S720.2614
X25.62 S739.8693
X23.22 S743.7908
X23.02 S735.9477
X22.82 S470.5882
X22.62 S143.7908
X22.42 S24.8366
X22.32 S3.9216
X16.72 S0.0000
X16.62 S11.7647
X16.42 S160.7843
X16.22 S695.4248
X15.82 S743.7908
X15.62 S739.8693
X15.42 S616.9935
X15.32 S54.9020
Y7.32 S0.0000
X15.42 S70.5882
X15.62 S687.5817
X15.82 S739.8693
X16.02 S743.7908
X16.22 S738.5621
X16.42 S645.7516
X16.62 S48.3660
X16.72 S3.9216
X22.52 S0.0000
X22.62 S3.9216
X22.82 S15.6863
X23.02 S82.3529
X23.22 S298.0392
X23.42 S648.3660
X23.62 S732.0261
X25.82 S743.7908
X26.02 S739.8693
X26.22 S724.1830
X26.42 S635.2941
X26.62 S356.8627
X26.82 S64.0523
X26.92 S3.9216
X27.32 S0.0000
X27.42 S3.9216
X27.12 Y7.52 S0.0000
X27.02 S9.1503
X26.82 S83.6601
X26.62 S529.4118
X26.42 S692.8105
X26.22 S739.8693
X23.82 S743.7908
X23.62 S717.6471
X23.42 S533.3333
X23.22 S175.1634
X23.02 S33.9869
X22.92 S3.9216
X16.52 S0.0000
X16.42 S30.0654
X16.22 S597.3856
X16.02 S733.3333
X15.62 S743.7908
X15.42 S699.3464
X15.22 S129.4118
X15.12 S9.1503
X14.82 S0.0000
X14.72 S3.9216
Y7.72 S0.0000
X14.82 S3.9216
X15.12 S0.0000
X15.22 S27.4510
X15.42 S271.8954
X15.62 S711.1111
X16.02 S743.7908
X16.22 S712.4183
X16.42 S475.8170
X16.52 S23.5294
X23.32 S0.0000
X23.42 S11.7647
X23.62 S66.6667
X23.82 S383.0065
X24.02 S679.7386
X26.62 S743.7908
X26.82 S717.6471
X27.02 S568.6275
X27.22 S156.8627
X27.32 S6.5359
X28.32 S0.0000
X28.42 S3.9216
X28.62 Y7.92 S0.0000
X28.52 S3.9216
X27.72 S0.0000
X27.62 S3.9216
X27.42 S37.9085
X27.22 S219.6078
X27.02 S589.5425
X26.82 S721.5686
X26.62 S739.8693
X24.42 S743.7908
X24.22 S721.5686
X24.02 S635.2941
X23.82 S294.1176
X23.62 S75.8170
X23.52 S5.2288
X16.52 S0.0000
X16.42 S15.6863
X16.22 S313.7255
X16.02 S684.9673
X15.62 S743.7908
X15.42 S725.4902
X15.22 S488.8889
X15.12 S60.1307
Y8.12 S0.0000
X15.22 S83.6601
X15.42 S649.6732
X15.62 S735.9477
X16.02 S743.7908
X16.22 S657.5163
X16.42 S143.7908
X16.52 S9.1503
X23.72 S0.0000
X23.82 S3.9216
X24.02 S31.3725
X24.22 S135.9477
X24.42 S470.5882
X24.62 S722.8758
X27.02 S743.7908
X27.22 S737.2549
X27.42 S667.9739
X27.62 S413.0719
X27.82 S49.6732
X27.92 S2.6144
X28.52 S0.0000
X28.62 S3.9216
Y8.32 S0.0000
X28.52 S3.9216
X28.12 S0.0000
X28.02 S10.4575
X27.82 S81.0458
X27.62 S521.5686
X27.42 S701.9608
X27.22 S739.8693
X25.02 S743.7908
X24.82 S737.2549
X24.62 S687.5817
X24.42 S354.2484
X24.22 S88.8889
X24.12 S11.7647
X16.52 S0.0000
X16.42 S3.9216
X16.22 S52.2876
X16.02 S641.8301
X15.42 S743.7908
X15.22 S735.9477
X15.02 S103.2680
X14.92 S3.9216
X14.32 Y8.52 S0.0000
X14.42 S3.9216
X14.92 S0.0000
X15.02 S11.7647
X15.22 S160.7843
X15.82 S743.7908
X16.02 S739.8693
X16.22 S594.7712
X16.32 S6.5359
X24.32 S0.0000
X24.42 S7.8431
X24.62 S60.1307
X24.82 S240.5229
X25.02 S583.0065
X25.22 S725.4902
X27.42 S743.7908
X27.62 S739.8693
X27.82 S711.1111
X28.02 S543.7908
X28.22 S137.2549
X28.32 S15.6863
X28.92 S0.0000
X29.02 S3.9216
X29.22 Y8.72 S0.0000
X29.12 S3.9216
X28.32 S0.0000
X28.22 S181.6993
X28.02 S631.3725
X27.82 S737.2549
X27.62 S739.8693
X25.42 S743.7908
X25.22 S738.5621
X25.02 S505.8824
X24.82 S139.8693
X24.62 S16.9935
X24.52 S3.9216
X16.12 S0.0000
X16.02 S464.0523
X15.82 S724.1830
X15.22 S743.7908
X15.02 S281.0458
X14.92 S30.0654
X14.62 S0.0000
X14.52 S3.9216
X14.92 Y8.92 S0.0000
X15.02 S75.8170
X15.22 S534.6405
X15.82 S743.7908
X16.02 S707.1895
X16.12 S322.8758
X24.72 S0.0000
X24.82 S3.9216
X25.02 S15.6863
X25.22 S95.4248
X25.42 S397.3856
X25.62 S667.9739
X28.02 S743.7908
X28.22 S733.3333
X28.42 S605.2288
X28.62 S210.4575
X28.72 S33.9869
X29.82 Y9.12 S0.0000
X29.72 S3.9216
X28.92 S0.0000
X28.82 S48.3660
X28.62 S349.0196
X28.42 S649.6732
X28.22 S733.3333
X26.02 S743.7908
X25.82 S732.0261
X25.62 S675.8170
X25.42 S292.8105
X25.22 S70.5882
X25.12 S6.5359
X16.12 S0.0000
X16.02 S206.5359
X15.82 S691.5033
X15.22 S743.7908
X15.02 S684.9673
X14.82 S107.1895
X14.72 S3.9216
Y9.32 S0.0000
X14.82 S3.9216
X15.02 S156.8627
X15.22 S709.8039
X15.82 S743.7908
X16.02 S678.4314
X16.12 S96.7320
X25.32 S0.0000
X25.42 S3.9216
X25.62 S32.6797
X25.82 S169.9346
X26.02 S541.1765
X26.22 S733.3333
X28.42 S743.7908
X28.62 S739.8693
X28.82 S681.0458
X29.02 S409.1503
X29.12 S10.4575
X29.72 S0.0000
X29.92 S3.9216
X30.02 Y9.52 S0.0000
X29.92 S3.9216
X29.52 S0.0000
X29.42 S5.2288
X29.22 S75.8170
X29.02 S466.6667
X28.82 S684.9673
X28.62 S739.8693
X26.62 S743.7908
X26.42 S741.1765
X26.22 S718.9542
X26.02 S457.5163
X25.82 S147.7124
X25.62 S20.9150
X25.52 S3.9216
X16.12 S0.0000
X16.02 S54.9020
X15.82 S626.1438
X15.62 S739.8693
X15.22 S743.7908
X15.02 S720.2614
X14.82 S290.1961
X14.72 S14.3791
X14.42 S0.0000
X14.32 S3.9216
X14.72 Y9.72 S0.0000
X14.82 S39.2157
X15.02 S534.6405
X15.22 S733.3333
X15.62 S743.7908
X15.82 S717.6471
X16.02 S445.7516
X16.12 S35.2941
X25.92 S0.0000
X26.02 S11.7647
X26.22 S92.8105
X26.42 S389.5425
X26.62 S671.8954
X26.82 S739.8693
X28.82 S743.7908
X29.02 S739.8693
X29.22 S711.1111
X29.42 S512.4183
X29.62 S81.0458
X29.72 S2.6144
X29.92 Y9.92 S0.0000
X29.82 S3.9216
X29.62 S71.8954
X29.42 S549.0196
X29.22 S717.6471
X29.02 S739.8693
X26.82 S743.7908
X26.62 S687.5817
X26.42 S318.9542
X26.22 S53.5948
X26.12 S6.5359
X16.12 S0.0000
X16.02 S26.1438
X15.82 S316.3399
X15.62 S701.9608
X15.22 S743.7908
X15.02 S739.8693
X14.82 S682.3529
X14.72 S57.5163
X14.12 Y10.12 S0.0000
X14.22 S3.9216
X14.52 S0.0000
X14.62 S10.4575
X14.82 S124.1830
X15.02 S699.3464
X15.62 S743.7908
X15.82 S677.1242
X16.02 S126.7974
X16.12 S10.4575
X26.32 S0.0000
X26.42 S6.5359
X26.62 S60.1307
X26.82 S258.8235
X27.02 S640.5229
X27.22 S733.3333
X29.22 S743.7908
X29.42 S739.8693
X29.62 S713.7255
X29.82 S532.0261
